img/quote-left.svg

<svg width="70" height="49" viewBox="0 0 70 49" fill="none" xmlns="http://www.w3.org/2000/svg">
<path opacity="0.4" d="M65 0.795418L50 0.795419L40 19.8312L40 48.3848L70 48.3848L70 19.8312L55 19.8312L65 0.795418ZM25 0.795422L10 0.795423L5.00671e-06 19.8312L7.62939e-06 48.3848L30 48.3848L30 19.8312L15 19.8312L25 0.795422Z" fill="#F2F2F2"/>
</svg>

<svg width="70" height="49" viewBox="0 0 70 49" xmlns="http://www.w3.org/2000/svg" fill="none"><path opacity=".4" d="M65 .795h-15l-10 19.036v28.554h30v-28.554h-15l10-19.036zm-40 0h-15l-10 19.036v28.554h30v-28.554h-15l10-19.036z" fill="#F2F2F2"/></svg>
